images/icon.svg

<svg width="48" xmlns="http://www.w3.org/2000/svg" height="48" xmlns:xlink="http://www.w3.org/1999/xlink">
 <defs>
  <linearGradient id="a" y1="543.8" y2="503.8" x2="0" gradientUnits="userSpaceOnUse" gradientTransform="matrix(1.125 0 0 1-51.07 0)">
   <stop stop-color="#2a2c2f"/>
   <stop offset="1" stop-color="#424649"/>
  </linearGradient>
  <linearGradient id="b" y1="540.92" y2="522.55" x2="0" gradientUnits="userSpaceOnUse" gradientTransform="matrix(1 0 0 1.14286 0-77.4)">
   <stop stop-color="#197cf1"/>
   <stop offset="1" stop-color="#05a0eb"/>
  </linearGradient>
  <linearGradient id="c" y1="542.8" y2="533.8" gradientUnits="userSpaceOnUse" x2="0" gradientTransform="translate(0-28)">
   <stop stop-color="#bcb4a1"/>
   <stop offset="1" stop-color="#c5bfad"/>
  </linearGradient>
  <linearGradient id="d" y1="540.8" y2="531.8" gradientUnits="userSpaceOnUse" x2="0">
   <stop stop-color="#1e1f21"/>
   <stop offset="1" stop-color="#242628"/>
  </linearGradient>
  <linearGradient xlink:href="#d" id="e" y1="528.8" y2="519.8" gradientUnits="userSpaceOnUse" x2="0"/>
  <linearGradient id="f" y1="20" x1="32" y2="30" x2="42" gradientUnits="userSpaceOnUse">
   <stop stop-color="#383e51"/>
   <stop offset="1" stop-color="#655c6f" stop-opacity="0"/>
  </linearGradient>
  <linearGradient xlink:href="#f" id="g" y1="531.8" x1="404.57" y2="543.8" x2="416.57" gradientUnits="userSpaceOnUse" gradientTransform="translate(-384.57-499.8)"/>
  <linearGradient xlink:href="#f" id="h" y1="531.8" x1="404.57" y2="543.8" gradientUnits="userSpaceOnUse" x2="416.57" gradientTransform="translate(0-12)"/>
  <linearGradient xlink:href="#f" id="i" y1="531.8" x1="404.57" y2="543.8" gradientUnits="userSpaceOnUse" x2="416.57" gradientTransform="translate(-12-12)"/>
  <linearGradient xlink:href="#f" id="j" y1="531.8" x1="404.57" y2="543.8" gradientUnits="userSpaceOnUse" x2="416.57" gradientTransform="translate(-12)"/>
 </defs>
 <g transform="translate(-384.57-499.8)">
  <rect width="36" x="390.57" y="503.8" fill="url(#a)" rx="0" height="40"/>
  <g fill-rule="evenodd">
   <path opacity=".2" fill="url(#h)" d="m413.57 519.8l-9 9 3 3h18z"/>
   <path opacity=".2" fill="url(#i)" d="m401.57 519.8l-9 9 3 3h18z"/>
   <path opacity=".2" fill="url(#j)" d="m401.57 531.8l-9 9 3 3h18z"/>
   <path opacity=".2" fill="url(#g)" d="m29 32l-9 9 3 3h18z" transform="translate(384.57 499.8)"/>
  </g>
  <rect width="36" x="390.57" y="542.8" fill="#1c1e20" height="1"/>
  <path opacity=".2" fill="url(#f)" fill-rule="evenodd" d="m40 20l-8 21 3 3h7v-22z" transform="translate(384.57 499.8)"/>
  <rect width="8" x="416.57" y="519.8" fill="url(#b)" rx="0" height="21"/>
  <rect width="32" x="392.57" y="505.8" fill="url(#c)" height="9"/>
  <path fill="#ffffff" d="m418.57 534.8v1h4v-1zm0 2v1h4v-1z"/>
  <g fill="#383432">
   <rect width="3" x="418.57" y="506.8" height="1"/>
   <rect width="1" x="421.57" y="507.8" height="5"/>
   <rect width="3" x="418.57" y="512.8" height="1"/>
   <rect width="1" x="417.57" y="507.8" height="5"/>
  </g>
  <rect width="9" x="392.57" y="531.8" fill="url(#d)" rx="0" height="9"/>
  <g fill="url(#e)">
   <rect width="9" x="392.57" y="519.8" rx="0" height="9"/>
   <rect width="9" x="404.57" y="519.8" rx="0" height="9"/>
  </g>
  <rect width="9" x="404.57" y="531.8" fill="url(#d)" rx="0" height="9"/>
  <g fill="#ffffff">
   <path d="m12 22v2h-2v1h2v2h1v-2h2v-1h-2v-2z" transform="translate(384.57 499.8)"/>
   <rect width="1" x="523.8" y="-411.57" rx="0" height="5" transform="rotate(90)"/>
   <g transform="translate(384.57 499.8)">
    <path d="M12.5 34A.5 .5 0 0 0 12 34.5 .5 .5 0 0 0 12.5 35 .5 .5 0 0 0 13 34.5 .5 .5 0 0 0 12.5 34M10 36V37H15V36zM12.5 38A.5 .5 0 0 0 12 38.5 .5 .5 0 0 0 12.5 39 .5 .5 0 0 0 13 38.5 .5 .5 0 0 0 12.5 38"/>
    <path d="m22.707 34l-.707.707 1.793 1.793-1.793 1.793.707.707 1.793-1.793 1.793 1.793.707-.707-1.793-1.793 1.793-1.793-.707-.707-1.793 1.793z"/>
   </g>
  </g>
 </g>
</svg>

<?xml version="1.0" encoding="UTF-8" standalone="no"?>
<svg
   width="48"
   height="48"
   version="1.1"
   id="svg90"
   sodipodi:docname="icon.svg"
   inkscape:version="1.2.2 (b0a8486541, 2022-12-01)"
   xmlns:inkscape="http://www.inkscape.org/namespaces/inkscape"
   xmlns:sodipodi="http://sodipodi.sourceforge.net/DTD/sodipodi-0.dtd"
   xmlns:xlink="http://www.w3.org/1999/xlink"
   xmlns="http://www.w3.org/2000/svg"
   xmlns:svg="http://www.w3.org/2000/svg">
  <sodipodi:namedview
     id="namedview92"
     pagecolor="#ffffff"
     bordercolor="#666666"
     borderopacity="1.0"
     inkscape:showpageshadow="2"
     inkscape:pageopacity="0.0"
     inkscape:pagecheckerboard="0"
     inkscape:deskcolor="#d1d1d1"
     showgrid="false"
     inkscape:zoom="21.520833"
     inkscape:cx="15.775412"
     inkscape:cy="24.092934"
     inkscape:current-layer="svg90" />
  <defs
     id="defs32">
    <linearGradient
       id="a"
       y1="543.8"
       y2="503.8"
       x2="0"
       gradientUnits="userSpaceOnUse"
       gradientTransform="matrix(1.125,0,0,1,-435.64,-499.8)">
      <stop
         stop-color="#2a2c2f"
         id="stop2" />
      <stop
         offset="1"
         stop-color="#424649"
         id="stop4" />
    </linearGradient>
    <linearGradient
       id="b"
       y1="540.92"
       y2="522.55"
       x2="0"
       gradientUnits="userSpaceOnUse"
       gradientTransform="matrix(1,0,0,1.14286,-384.57,-577.2)">
      <stop
         stop-color="#197cf1"
         id="stop7" />
      <stop
         offset="1"
         stop-color="#05a0eb"
         id="stop9" />
    </linearGradient>
    <linearGradient
       id="c"
       y1="542.8"
       y2="533.8"
       gradientUnits="userSpaceOnUse"
       x2="0"
       gradientTransform="translate(-384.57,-527.8)">
      <stop
         stop-color="#bcb4a1"
         id="stop12" />
      <stop
         offset="1"
         stop-color="#c5bfad"
         id="stop14" />
    </linearGradient>
    <linearGradient
       id="d"
       y1="540.8"
       y2="531.8"
       gradientUnits="userSpaceOnUse"
       x2="0">
      <stop
         stop-color="#1e1f21"
         id="stop17" />
      <stop
         offset="1"
         stop-color="#242628"
         id="stop19" />
    </linearGradient>
    <linearGradient
       xlink:href="#d"
       id="e"
       y1="528.8"
       y2="519.8"
       gradientUnits="userSpaceOnUse"
       x2="0" />
    <linearGradient
       id="f"
       y1="20"
       x1="32"
       y2="30"
       x2="42"
       gradientUnits="userSpaceOnUse">
      <stop
         stop-color="#383e51"
         id="stop23" />
      <stop
         offset="1"
         stop-color="#655c6f"
         stop-opacity="0"
         id="stop25" />
    </linearGradient>
    <linearGradient
       xlink:href="#f"
       id="g"
       y1="531.8"
       x1="404.57"
       y2="543.8"
       x2="416.57"
       gradientUnits="userSpaceOnUse"
       gradientTransform="translate(-384.57,-499.8)" />
    <linearGradient
       xlink:href="#f"
       id="h"
       y1="531.8"
       x1="404.57"
       y2="543.8"
       gradientUnits="userSpaceOnUse"
       x2="416.57"
       gradientTransform="translate(0,-12)" />
    <linearGradient
       xlink:href="#f"
       id="i"
       y1="531.8"
       x1="404.57"
       y2="543.8"
       gradientUnits="userSpaceOnUse"
       x2="416.57"
       gradientTransform="translate(-12,-12)" />
    <linearGradient
       xlink:href="#f"
       id="j"
       y1="531.8"
       x1="404.57"
       y2="543.8"
       gradientUnits="userSpaceOnUse"
       x2="416.57"
       gradientTransform="translate(-12)" />
    <linearGradient
       inkscape:collect="always"
       xlink:href="#f"
       id="linearGradient325"
       gradientUnits="userSpaceOnUse"
       x1="32"
       y1="20"
       x2="42"
       y2="30" />
    <linearGradient
       inkscape:collect="always"
       xlink:href="#d"
       id="linearGradient327"
       gradientUnits="userSpaceOnUse"
       y1="540.8"
       x2="0"
       y2="531.8"
       gradientTransform="translate(-384.57,-499.8)" />
    <linearGradient
       inkscape:collect="always"
       xlink:href="#d"
       id="linearGradient329"
       gradientUnits="userSpaceOnUse"
       y1="528.8"
       x2="0"
       y2="519.8"
       gradientTransform="translate(-384.57,-499.8)" />
    <linearGradient
       inkscape:collect="always"
       xlink:href="#d"
       id="linearGradient331"
       gradientUnits="userSpaceOnUse"
       y1="528.8"
       x2="0"
       y2="519.8"
       gradientTransform="translate(-384.57,-499.8)" />
    <linearGradient
       inkscape:collect="always"
       xlink:href="#d"
       id="linearGradient333"
       gradientUnits="userSpaceOnUse"
       y1="540.8"
       x2="0"
       y2="531.8"
       gradientTransform="translate(-384.57,-499.8)" />
  </defs>
  <rect
     width="36"
     x="6.0000072"
     y="3.9999878"
     fill="url(#a)"
     rx="0"
     height="40"
     id="rect34"
     style="fill:#4d4d4d" />
  <g
     fill-rule="evenodd"
     id="g44"
     transform="translate(-384.57,-499.8)">
    <path
       opacity="0.2"
       fill="url(#h)"
       d="m 413.57,519.8 -9,9 3,3 h 18 z"
       id="path36"
       style="fill:url(#h)" />
    <path
       opacity="0.2"
       fill="url(#i)"
       d="m 401.57,519.8 -9,9 3,3 h 18 z"
       id="path38"
       style="fill:url(#i)" />
    <path
       opacity="0.2"
       fill="url(#j)"
       d="m 401.57,531.8 -9,9 3,3 h 18 z"
       id="path40"
       style="fill:url(#j)" />
    <path
       opacity="0.2"
       fill="url(#g)"
       d="m 29,32 -9,9 3,3 h 18 z"
       transform="translate(384.57,499.8)"
       id="path42"
       style="fill:url(#g)" />
  </g>
  <rect
     width="36"
     x="6.0000072"
     y="42.999989"
     fill="#1c1e20"
     height="1"
     id="rect46" />
  <path
     opacity="0.2"
     fill="url(#f)"
     fill-rule="evenodd"
     d="m 40,20 -8,21 3,3 h 7 V 22 Z"
     id="path48"
     style="fill:url(#linearGradient325)" />
  <rect
     width="8"
     x="32.000008"
     y="19.999989"
     fill="url(#b)"
     rx="0"
     height="21"
     id="rect50"
     style="fill:#0000ff" />
  <rect
     width="32"
     x="8.0000076"
     y="5.9999876"
     fill="url(#c)"
     height="9"
     id="rect52"
     style="fill:#e9ddaf" />
  <path
     fill="#ffffff"
     d="m 34,35 v 1 h 4 v -1 z m 0,2 v 1 h 4 v -1 z"
     id="path54" />
  <g
     fill="#383432"
     id="g64"
     transform="translate(-384.57,-499.8)">
    <rect
       width="3"
       x="418.57001"
       y="506.79999"
       height="1"
       id="rect56" />
    <rect
       width="1"
       x="421.57001"
       y="507.79999"
       height="5"
       id="rect58" />
    <rect
       width="3"
       x="418.57001"
       y="512.79999"
       height="1"
       id="rect60" />
    <rect
       width="1"
       x="417.57001"
       y="507.79999"
       height="5"
       id="rect62" />
  </g>
  <rect
     width="9"
     x="8.0000076"
     y="31.999989"
     fill="url(#d)"
     rx="0"
     height="9"
     id="rect66"
     style="fill:url(#linearGradient327)" />
  <rect
     width="9"
     x="8.0000076"
     y="19.999989"
     rx="0"
     height="9"
     id="rect68"
     style="fill:url(#linearGradient329)" />
  <rect
     width="9"
     x="20.000008"
     y="19.999989"
     rx="0"
     height="9"
     id="rect70"
     style="fill:url(#linearGradient331)" />
  <rect
     width="9"
     x="20.000008"
     y="31.999989"
     fill="url(#d)"
     rx="0"
     height="9"
     id="rect74"
     style="fill:url(#linearGradient333)" />
  <g
     fill="#ffffff"
     id="g86"
     transform="translate(-384.57,-499.8)">
    <path
       d="m 12,22 v 2 h -2 v 1 h 2 v 2 h 1 v -2 h 2 v -1 h -2 v -2 z"
       transform="translate(384.57,499.8)"
       id="path76" />
    <rect
       width="1"
       x="523.79999"
       y="-411.57001"
       rx="0"
       height="5"
       transform="rotate(90)"
       id="rect78" />
    <g
       transform="translate(384.57,499.8)"
       id="g84">
      <path
         d="M 12.5,34 A 0.5,0.5 0 0 0 12,34.5 0.5,0.5 0 0 0 12.5,35 0.5,0.5 0 0 0 13,34.5 0.5,0.5 0 0 0 12.5,34 M 10,36 v 1 h 5 v -1 z m 2.5,2 A 0.5,0.5 0 0 0 12,38.5 0.5,0.5 0 0 0 12.5,39 0.5,0.5 0 0 0 13,38.5 0.5,0.5 0 0 0 12.5,38"
         id="path80" />
      <path
         d="M 22.707,34 22,34.707 23.793,36.5 22,38.293 22.707,39 24.5,37.207 26.293,39 27,38.293 25.207,36.5 27,34.707 26.293,34 24.5,35.793 Z"
         id="path82" />
    </g>
  </g>
</svg>
